;FLAVOR:Marlin
;TIME:4046
;Filament used: 0.866039m
;Layer height: 0.12
;MINX:79.885
;MINY:86.341
;MINZ:0.12
;MAXX:139.967
;MAXY:139.61
;MAXZ:23.64
;TARGET_MACHINE.NAME:Creality Ender-3 Pro
;Generated with Cura_SteamEngine 5.10.0
; Ender 3 Custom Start G-code
G92 E0 ; Reset Extruder
G28 ; Home all axes
G1 Z5.0 F3000 ; Move Z Axis up a bit during heating to not damage bed
M104 S175 ; Start heating up the nozzle most of the way
M190 S60 ; Start heating the bed, wait until target temperature reached
M109 S200 ; Finish heating the nozzle
G1 Z2.0 F3000 ; Move Z Axis up little to prevent scratching of Heat Bed
G1 X0.1 Y20 Z0.3 F5000.0 ; Move to start position
G1 X0.1 Y200.0 Z0.3 F1500.0 E15 ; Draw the first line
G1 X0.4 Y200.0 Z0.3 F5000.0 ; Move to side a little
G1 X0.4 Y20 Z0.3 F1500.0 E30 ; Draw the second line
G92 E0 ; Reset Extruder
G1 Z2.0 F3000 ; Move Z Axis up little to prevent scratching of Heat Bed
G1 X5 Y20 Z0.3 F5000.0 ; Move over to prevent blob squish
M82 ;absolute extrusion mode
G92 E0
G92 E0
G1 F1500 E-6.5
;LAYER_COUNT:197
;LAYER:0
M107
G0 F6000 X85.819 Y96.933 Z0.12
;TYPE:SKIRT
G1 F1500 E0
G1 F1200 X86.582 Y96.327 E0.01944
G1 X87.335 Y95.829 E0.03746
G1 X88.248 Y95.335 E0.05818
G1 X91.476 Y93.909 E0.1286
G1 X93.716 Y92.843 E0.17811
G1 X96.6 Y91.369 E0.24274
G1 X97.549 Y90.936 E0.26356
G1 X98.547 Y90.578 E0.28472
G1 X99.515 Y90.325 E0.30468
G1 X100.227 Y90.198 E0.31912
G1 X100.57 Y90.149 E0.32603
G1 X101.457 Y90.059 E0.34382
G1 X102.613 Y89.991 E0.36693
G1 X105.158 Y89.805 E0.41785
G1 X107.659 Y89.552 E0.46802
G1 X110.152 Y89.228 E0.51819
G1 X112.669 Y88.829 E0.56904
G1 X115.125 Y88.367 E0.61892
G1 X117.557 Y87.84 E0.66858
G1 X120.084 Y87.215 E0.72052
G1 X121.97 Y86.709 E0.75949
G1 X122.923 Y86.5 E0.77896
G1 X123.888 Y86.378 E0.79837
G1 X124.861 Y86.341 E0.81781
G1 X125.763 Y86.384 E0.83583
G1 X126.793 Y86.526 E0.85658
G1 X127.57 Y86.699 E0.87246
G1 X128.779 Y87.019 E0.89742
G1 X129.989 Y87.371 E0.92257
G1 X130.911 Y87.687 E0.94202
G1 X131.738 Y88.052 E0.96006
G1 X132.652 Y88.557 E0.9809
G1 X133.457 Y89.104 E1.00032
G1 X134.209 Y89.716 E1.01967
G1 X134.788 Y90.272 E1.03569
G1 X136.003 Y91.537 E1.07069
G1 X136.494 Y92.07 E1.08515
G1 X137.119 Y92.816 E1.10457
G1 X137.675 Y93.614 E1.12398
G1 X138.161 Y94.458 E1.14342
G1 X138.542 Y95.277 E1.16144
G1 X138.889 Y96.235 E1.18178
G1 X139.14 Y97.051 E1.19881
G1 X139.559 Y98.534 E1.22957
G1 X139.781 Y99.484 E1.24904
G1 X139.916 Y100.447 E1.26844
G1 X139.967 Y101.419 E1.28786
G1 X139.931 Y102.393 E1.30732
G1 X139.811 Y103.353 E1.32662
G1 X139.648 Y104.134 E1.34254
G1 X139.5 Y104.714 E1.35449
G1 X139.166 Y105.912 E1.37931
G1 X138.918 Y106.748 E1.39671
G1 X138.597 Y107.666 E1.41612
G1 X138.196 Y108.555 E1.43558
G1 X137.715 Y109.407 E1.45511
G1 X137.109 Y110.282 E1.47635
G1 X136.785 Y110.704 E1.48696
G1 X135.238 Y112.783 E1.53868
G1 X133.784 Y114.852 E1.58914
G1 X132.399 Y116.95 E1.63931
G1 X131.076 Y119.082 E1.68938
G1 X129.772 Y121.323 E1.74112
G1 X128.503 Y123.645 E1.79393
G1 X128.003 Y124.475 E1.81327
G1 X127.457 Y125.236 E1.83196
G1 X126.841 Y125.988 E1.85136
G1 X126.168 Y126.678 E1.87059
G1 X125.699 Y127.092 E1.88308
G1 X124.413 Y128.167 E1.91653
G1 X122.441 Y129.883 E1.96869
G1 X120.587 Y131.588 E2.01896
G1 X118.783 Y133.347 E2.06924
G1 X117.044 Y135.122 E2.11883
G1 X116.204 Y135.947 E2.14233
G1 X115.478 Y136.596 E2.16176
G1 X114.697 Y137.178 E2.1812
G1 X113.868 Y137.688 E2.20062
G1 X112.998 Y138.124 E2.22004
G1 X112.134 Y138.467 E2.23859
G1 X111.656 Y138.621 E2.24861
G1 X110.638 Y138.92 E2.26979
G1 X109.465 Y139.236 E2.29403
G1 X108.513 Y139.447 E2.31349
G1 X107.548 Y139.571 E2.3329
G1 X106.576 Y139.61 E2.35232
G1 X105.674 Y139.569 E2.37034
G1 X104.639 Y139.428 E2.39118
G1 X103.745 Y139.227 E2.40947
G1 X102.978 Y139.014 E2.42535
G1 X101.624 Y138.608 E2.45356
G1 X100.771 Y138.31 E2.47159
G1 X99.819 Y137.879 E2.49245
G1 X98.972 Y137.398 E2.51189
G1 X98.167 Y136.842 E2.53141
G1 X97.337 Y136.146 E2.55303
G1 X96.888 Y135.718 E2.56541
G1 X95.948 Y134.783 E2.59186
G1 X95.475 Y134.295 E2.60543
G1 X94.838 Y133.573 E2.62464
G1 X94.082 Y132.522 E2.65048
G1 X92.914 Y130.673 E2.69412
G1 X91.507 Y128.562 E2.74475
G1 X90.06 Y126.519 E2.79471
G1 X88.531 Y124.486 E2.84547
G1 X87.001 Y122.567 E2.89445
G1 X85.339 Y120.598 E2.94587
G1 X83.364 Y118.394 E3.00493
G1 X82.739 Y117.647 E3.02437
G1 X82.184 Y116.847 E3.0438
G1 X81.702 Y116.002 E3.06321
G1 X81.298 Y115.124 E3.0825
G1 X81.044 Y114.436 E3.09713
G1 X80.859 Y113.857 E3.10926
G1 X80.28 Y111.847 E3.15101
G1 X80.064 Y110.898 E3.17043
G1 X79.933 Y109.934 E3.18984
G1 X79.885 Y108.961 E3.20928
G1 X79.925 Y107.99 E3.22868
G1 X80.039 Y107.094 E3.2467
G1 X80.281 Y106.005 E3.26896
G1 X80.56 Y105.001 E3.28976
G1 X80.96 Y103.67 E3.31749
G1 X81.258 Y102.817 E3.33553
G1 X81.69 Y101.865 E3.35639
G1 X82.171 Y101.018 E3.37583
G1 X82.726 Y100.216 E3.39529
G1 X83.342 Y99.474 E3.41454
G1 X83.941 Y98.823 E3.43219
G1 X85.1 Y97.615 E3.4656
G1 X85.819 Y96.933 E3.48537
G0 F6000 X86.068 Y97.246
G1 F1200 X86.803 Y96.661 E3.50412
G1 X87.556 Y96.163 E3.52214
G1 X88.41 Y95.701 E3.54151
G1 X91.638 Y94.275 E3.61194
G1 X93.888 Y93.204 E3.66167
G1 X96.767 Y91.733 E3.72618
G1 X97.684 Y91.313 E3.74631
G1 X98.682 Y90.955 E3.76747
G1 X99.585 Y90.719 E3.7861
G1 X100.284 Y90.594 E3.80027
G1 X100.61 Y90.547 E3.80684
G1 X101.497 Y90.457 E3.82463
G1 X102.642 Y90.39 E3.84752
G1 X105.191 Y90.204 E3.89852
G1 X107.711 Y89.949 E3.94907
G1 X110.204 Y89.625 E3.99924
G1 X112.732 Y89.224 E4.05032
G1 X115.21 Y88.758 E4.10064
G1 X117.642 Y88.231 E4.1503
G1 X120.187 Y87.601 E4.20262
G1 X122.056 Y87.1 E4.24123
G1 X122.974 Y86.897 E4.25999
G1 X123.904 Y86.778 E4.27871
G1 X124.842 Y86.741 E4.29744
G1 X125.744 Y86.784 E4.31546
G1 X126.706 Y86.917 E4.33484
G1 X127.468 Y87.086 E4.35042
G1 X128.667 Y87.403 E4.37517
G1 X129.86 Y87.75 E4.39996
G1 X130.749 Y88.053 E4.4187
G1 X131.576 Y88.418 E4.43674
G1 X132.428 Y88.888 E4.45616
G1 X133.205 Y89.414 E4.47489
G1 X133.932 Y90.005 E4.49358
G1 X134.511 Y90.561 E4.5096
G1 X135.709 Y91.808 E4.54411
G1 X136.188 Y92.327 E4.5582
G1 X136.791 Y93.045 E4.57692
G1 X137.329 Y93.814 E4.59564
G1 X137.798 Y94.627 E4.61437
G1 X138.179 Y95.446 E4.6324
G1 X138.507 Y96.353 E4.65165
G1 X138.755 Y97.16 E4.6685
G1 X139.17 Y98.626 E4.6989
G1 X139.385 Y99.54 E4.71764
G1 X139.517 Y100.468 E4.73634
G1 X139.567 Y101.405 E4.75507
G1 X139.534 Y102.344 E4.77382
G1 X139.419 Y103.272 E4.79248
G1 X139.26 Y104.036 E4.80805
G1 X139.115 Y104.607 E4.81981
G1 X138.783 Y105.798 E4.84448
G1 X138.54 Y106.617 E4.86153
G1 X138.232 Y107.502 E4.88023
G1 X137.847 Y108.359 E4.89898
G1 X137.386 Y109.179 E4.91775
G1 X136.792 Y110.038 E4.9386
G1 X136.468 Y110.46 E4.94921
G1 X134.917 Y112.544 E5.00106
G1 X133.457 Y114.622 E5.05174
G1 X132.065 Y116.73 E5.10215
G1 X130.736 Y118.871 E5.15244
G1 X129.426 Y121.122 E5.20441
G1 X128.16 Y123.439 E5.2571
G1 X127.678 Y124.242 E5.27579
G1 X127.147 Y124.983 E5.29398
G1 X126.554 Y125.709 E5.31269
G1 X125.903 Y126.378 E5.33132
G1 X125.442 Y126.785 E5.34359
G1 X124.156 Y127.86 E5.37704
G1 X122.178 Y129.581 E5.42936
G1 X120.316 Y131.294 E5.47985
G1 X118.497 Y133.067 E5.53055
G1 X116.764 Y134.837 E5.57998
G1 X115.937 Y135.649 E5.60311
G1 X115.238 Y136.276 E5.62185
G1 X114.487 Y136.838 E5.64057
G1 X113.688 Y137.331 E5.6593
G1 X112.85 Y137.752 E5.67802
G1 X112.011 Y138.086 E5.69604
G1 X111.543 Y138.237 E5.70585
G1 X110.534 Y138.534 E5.72684
G1 X109.378 Y138.846 E5.75074
G1 X108.461 Y139.05 E5.76948
G1 X107.531 Y139.171 E5.7882
G1 X106.594 Y139.21 E5.80691
G1 X105.692 Y139.169 E5.82493
G1 X104.727 Y139.038 E5.84437
G1 X103.852 Y138.841 E5.86227
G1 X103.093 Y138.631 E5.87798
G1 X101.756 Y138.23 E5.90584
G1 X100.903 Y137.932 E5.92387
G1 X100.016 Y137.531 E5.94329
G1 X99.199 Y137.069 E5.96202
G1 X98.424 Y136.535 E5.98081
G1 X97.594 Y135.839 E6.00242
G1 X97.17 Y135.434 E6.01412
G1 X96.235 Y134.504 E6.04044
G1 X95.775 Y134.03 E6.05362
G1 X95.138 Y133.308 E6.07284
G1 X94.42 Y132.308 E6.0974
G1 X93.252 Y130.459 E6.14105
G1 X91.84 Y128.34 E6.19186
G1 X90.38 Y126.279 E6.24227
G1 X88.851 Y124.246 E6.29303
G1 X87.307 Y122.309 E6.34246
G1 X85.645 Y120.34 E6.39388
G1 X83.67 Y118.137 E6.45293
G1 X83.067 Y117.418 E6.47165
G1 X82.531 Y116.648 E6.49038
G1 X82.065 Y115.834 E6.50909
G1 X81.673 Y114.985 E6.52776
G1 X81.425 Y114.314 E6.54203
G1 X81.243 Y113.746 E6.55393
G1 X80.67 Y111.758 E6.59522
G1 X80.46 Y110.843 E6.61396
G1 X80.332 Y109.914 E6.63267
G1 X80.285 Y108.977 E6.65139
G1 X80.322 Y108.04 E6.67011
G1 X80.436 Y107.144 E6.68813
G1 X80.666 Y106.112 E6.70923
G1 X80.943 Y105.116 E6.72986
G1 X81.338 Y103.802 E6.75724
G1 X81.636 Y102.949 E6.77528
G1 X82.038 Y102.062 E6.79471
G1 X82.5 Y101.245 E6.81344
G1 X83.034 Y100.472 E6.83219
G1 X83.65 Y99.73 E6.85143
G1 X84.23 Y99.1 E6.86852
G1 X85.376 Y97.905 E6.90156
G1 X86.068 Y97.246 E6.92063
G0 F6000 X86.318 Y97.559
G1 F1200 X87.024 Y96.995 E6.93867
G1 X87.777 Y96.497 E6.95668
G1 X88.572 Y96.067 E6.97472
G1 X91.8 Y94.641 E7.04514
G1 X94.06 Y93.565 E7.0951
G1 X96.934 Y92.096 E7.15951
G1 X97.82 Y91.689 E7.17896
G1 X98.783 Y91.342 E7.19939
G1 X99.656 Y91.113 E7.2174
G1 X100.341 Y90.99 E7.23129
G1 X100.651 Y90.945 E7.23754
G1 X101.52 Y90.856 E7.25498
G1 X102.671 Y90.789 E7.27798
G1 X105.224 Y90.603 E7.32907
G1 X107.763 Y90.346 E7.37999
G1 X110.256 Y90.022 E7.43016
G1 X112.795 Y89.619 E7.48147
G1 X115.297 Y89.149 E7.53227
G1 X117.727 Y88.622 E7.58189
G1 X120.29 Y87.987 E7.63458
G1 X122.143 Y87.49 E7.67287
G1 X123.025 Y87.294 E7.6909
G1 X123.92 Y87.178 E7.70891
G1 X124.823 Y87.141 E7.72694
G1 X125.725 Y87.184 E7.74497
G1 X126.619 Y87.307 E7.76297
G1 X127.366 Y87.473 E7.77825
G1 X128.555 Y87.787 E7.80279
G1 X129.732 Y88.129 E7.82725
G1 X130.587 Y88.419 E7.84526
G1 X131.414 Y88.784 E7.8633
G1 X132.204 Y89.22 E7.88131
G1 X132.953 Y89.725 E7.89934
G1 X133.655 Y90.294 E7.91737
G1 X134.234 Y90.85 E7.93339
G1 X135.415 Y92.079 E7.9674
G1 X135.882 Y92.585 E7.98115
G1 X136.464 Y93.275 E7.99916
G1 X136.983 Y94.014 E8.01718
G1 X137.435 Y94.796 E8.03521
G1 X137.816 Y95.615 E8.05323
G1 X138.125 Y96.47 E8.07137
G1 X138.37 Y97.269 E8.08805
G1 X138.781 Y98.718 E8.11811
G1 X138.989 Y99.597 E8.13613
G1 X139.118 Y100.49 E8.15414
G1 X139.167 Y101.392 E8.17217
G1 X139.137 Y102.295 E8.1902
G1 X139.027 Y103.191 E8.20821
G1 X138.872 Y103.938 E8.22344
G1 X138.73 Y104.499 E8.23499
G1 X138.399 Y105.685 E8.25956
G1 X138.162 Y106.486 E8.27623
G1 X137.867 Y107.339 E8.29424
G1 X137.498 Y108.164 E8.31228
G1 X137.057 Y108.952 E8.3303
G1 X136.475 Y109.794 E8.35072
G1 X136.151 Y110.216 E8.36134
G1 X134.596 Y112.305 E8.41331
G1 X133.13 Y114.392 E8.46421
G1 X131.731 Y116.51 E8.51486
G1 X130.396 Y118.66 E8.56537
G1 X129.08 Y120.921 E8.61757
G1 X127.817 Y123.234 E8.67016
G1 X127.353 Y124.009 E8.68819
G1 X126.837 Y124.73 E8.70588
G1 X126.267 Y125.43 E8.7239
G1 X125.638 Y126.078 E8.74192
G1 X125.186 Y126.478 E8.75396
G1 X123.893 Y127.558 E8.78758
G1 X121.915 Y129.279 E8.83991
G1 X120.045 Y131 E8.89062
G1 X118.211 Y132.787 E8.94172
G1 X116.484 Y134.552 E8.991
G1 X115.67 Y135.352 E9.01378
G1 X114.998 Y135.956 E9.03181
G1 X114.276 Y136.498 E9.04983
G1 X113.508 Y136.974 E9.06786
G1 X112.702 Y137.38 E9.08587
G1 X111.863 Y137.714 E9.10389
G1 X111.43 Y137.853 E9.11296
G1 X110.429 Y138.148 E9.13379
G1 X109.291 Y138.456 E9.15732
G1 X108.409 Y138.653 E9.17535
G1 X107.514 Y138.771 E9.19337
G1 X106.612 Y138.81 E9.21138
G1 X105.71 Y138.769 E9.2294
G1 X104.815 Y138.648 E9.24743
G1 X103.958 Y138.455 E9.26496
G1 X103.208 Y138.248 E9.28048
G1 X101.888 Y137.852 E9.30799
G1 X101.035 Y137.554 E9.32602
G1 X100.212 Y137.182 E9.34404
G1 X99.425 Y136.739 E9.36206
G1 X98.681 Y136.228 E9.38008
G1 X97.87 Y135.549 E9.40118
G1 X97.452 Y135.151 E9.4127
G1 X96.522 Y134.225 E9.43889
G1 X96.062 Y133.751 E9.45207
G1 X95.463 Y133.075 E9.4701
G1 X94.758 Y132.094 E9.49421
G1 X93.59 Y130.245 E9.53785
G1 X92.173 Y128.118 E9.58885
G1 X90.7 Y126.039 E9.6397
G1 X89.171 Y124.006 E9.69046
G1 X87.613 Y122.051 E9.74035
G1 X85.951 Y120.082 E9.79177
G1 X83.976 Y117.88 E9.8508
G1 X83.395 Y117.189 E9.86882
G1 X82.878 Y116.449 E9.88683
G1 X82.428 Y115.666 E9.90485
G1 X82.048 Y114.846 E9.92289
G1 X81.806 Y114.192 E9.93681
G1 X81.627 Y113.633 E9.94852
G1 X81.25 Y112.349 E9.97523
G1 X81.06 Y111.668 E9.98933
G1 X80.856 Y110.788 E10.00736
G1 X80.731 Y109.894 E10.02538
G1 X80.685 Y108.992 E10.0434
G1 X80.719 Y108.09 E10.06141
G1 X80.833 Y107.194 E10.07944
G1 X81.051 Y106.219 E10.09938
G1 X81.326 Y105.231 E10.11984
G1 X81.716 Y103.934 E10.14687
G1 X82.014 Y103.081 E10.1649
G1 X82.386 Y102.259 E10.18291
G1 X82.83 Y101.472 E10.20094
G1 X83.342 Y100.728 E10.21896
G1 X83.958 Y99.986 E10.23821
G1 X84.519 Y99.377 E10.25473
G1 X85.665 Y98.182 E10.28777
G1 X86.318 Y97.559 E10.30578
G1 F1500 E3.80578
G0 F6000 X93.129 Y105.412
G1 F1500 E10.30578
G1 F1200 X95.168 Y104.84 E10.34804
G1 X97.207 Y105.412 E10.39031
G1 X98.683 Y106.968 E10.4331
G1 X99.252 Y108.921 E10.4737
G1 X98.68 Y110.964 E10.51604
G1 X97.209 Y112.435 E10.55755
G1 X95.166 Y113.007 E10.59989
G1 X93.213 Y112.436 E10.6405
G1 X91.655 Y110.878 E10.68447
G1 X91.082 Y108.923 E10.72512
G1 X91.653 Y106.968 E10.76577
G1 X93.129 Y105.412 E10.80857
G0 F6000 X93.343 Y105.767
G1 F1200 X95.168 Y105.255 E10.84639
G1 X96.993 Y105.767 E10.88422
G1 X98.326 Y107.172 E10.92287
G1 X98.836 Y108.923 E10.95926
G1 X98.323 Y110.755 E10.99723
G1 X97 Y112.078 E11.03457
G1 X95.169 Y112.591 E11.07251
G1 X93.424 Y112.081 E11.10879
G1 X92.01 Y110.667 E11.1487
G1 X91.499 Y108.922 E11.18498
G1 X92.01 Y107.172 E11.22137
G1 X93.343 Y105.767 E11.26002
G0 F6000 X93.558 Y106.122
G1 F1200 X95.168 Y105.671 E11.29338
G1 X96.778 Y106.122 E11.32675
G1 X97.969 Y107.378 E11.36129
G1 X98.42 Y108.926 E11.39347
G1 X97.966 Y110.546 E11.42704
G1 X96.791 Y111.721 E11.4602
G1 X95.172 Y112.175 E11.49376
G1 X93.635 Y111.726 E11.52571
G1 X92.365 Y110.456 E11.56155
G1 X91.916 Y108.921 E11.59347
G1 X92.367 Y107.378 E11.62555
G1 X93.558 Y106.122 E11.66009
G0 F6000 X93.772 Y106.478
G1 F1200 X95.168 Y106.086 E11.68903
G1 X96.564 Y106.478 E11.71796
G1 X97.612 Y107.582 E11.74834
G1 X98.004 Y108.929 E11.77634
G1 X97.61 Y110.336 E11.8055
G1 X96.581 Y111.365 E11.83454
G1 X95.175 Y111.759 E11.86368
G1 X93.845 Y111.37 E11.89133
G1 X92.72 Y110.245 E11.92308
G1 X92.333 Y108.921 E11.95061
G1 X92.724 Y107.582 E11.97844
G1 X93.772 Y106.478 E12.00882
G0 F6000 X93.987 Y106.833
G1 F1200 X95.168 Y106.501 E12.0333
G1 X96.349 Y106.833 E12.05778
G1 X97.255 Y107.788 E12.08405
G1 X97.588 Y108.931 E12.10781
G1 X97.254 Y110.126 E12.13257
G1 X96.371 Y111.009 E12.15749
G1 X95.178 Y111.343 E12.18222
G1 X94.056 Y111.015 E12.20555
G1 X93.074 Y110.033 E12.23326
G1 X92.749 Y108.923 E12.25634
G1 X93.081 Y107.788 E12.27994
G1 X93.987 Y106.833 E12.30621
G0 F6000 X94.201 Y107.188
G1 F1200 X95.168 Y106.917 E12.32625
G1 X96.135 Y107.188 E12.34629
G1 X96.898 Y107.992 E12.36841
G1 X97.172 Y108.933 E12.38797
G1 X96.897 Y109.917 E12.40836
G1 X96.162 Y110.652 E12.4291
G1 X95.18 Y110.927 E12.44945
G1 X94.267 Y110.66 E12.46844
G1 X93.429 Y109.822 E12.49209
G1 X93.166 Y108.923 E12.51078
G1 X93.438 Y107.992 E12.53013
G1 X94.201 Y107.188 E12.55225
G0 F6000 X94.414 Y107.543
G1 F1200 X95.168 Y107.332 E12.56788
G1 X95.922 Y107.543 E12.5835
G1 X96.541 Y108.197 E12.60147
G1 X96.756 Y108.934 E12.61679
G1 X96.538 Y109.712 E12.63292
G1 X95.957 Y110.293 E12.64932
G1 X95.181 Y110.51 E12.6654
G1 X94.475 Y110.304 E12.68007
G1 X93.786 Y109.615 E12.69952
G1 X93.583 Y108.923 E12.71391
G1 X93.795 Y108.196 E12.72902
G1 X94.414 Y107.543 E12.74698
G0 F6000 X94.63 Y107.899
G1 F1200 X95.168 Y107.748 E12.75813
G1 X95.706 Y107.899 E12.76928
G1 X96.185 Y108.404 E12.78317
