;FLAVOR:Marlin
;TIME:4483
;Filament used: 1.01997m
;Layer height: 0.12
;MINX:90.173
;MINY:79.666
;MINZ:0.12
;MAXX:129.828
;MAXY:128.917
;MAXZ:24.24
;TARGET_MACHINE.NAME:Creality Ender-3 Pro
;Generated with Cura_SteamEngine 5.10.0
; Ender 3 Custom Start G-code
G92 E0 ; Reset Extruder
G28 ; Home all axes
G1 Z5.0 F3000 ; Move Z Axis up a bit during heating to not damage bed
M104 S175 ; Start heating up the nozzle most of the way
M190 S60 ; Start heating the bed, wait until target temperature reached
M109 S200 ; Finish heating the nozzle
G1 Z2.0 F3000 ; Move Z Axis up little to prevent scratching of Heat Bed
G1 X0.1 Y20 Z0.3 F5000.0 ; Move to start position
G1 X0.1 Y200.0 Z0.3 F1500.0 E15 ; Draw the first line
G1 X0.4 Y200.0 Z0.3 F5000.0 ; Move to side a little
G1 X0.4 Y20 Z0.3 F1500.0 E30 ; Draw the second line
G92 E0 ; Reset Extruder
G1 Z2.0 F3000 ; Move Z Axis up little to prevent scratching of Heat Bed
G1 X5 Y20 Z0.3 F5000.0 ; Move over to prevent blob squish
M82 ;absolute extrusion mode
G92 E0
G92 E0
G1 F1500 E-6.5
;LAYER_COUNT:202
;LAYER:0
M107
G0 F6000 X98.616 Y85.583 Z0.12
;TYPE:SKIRT
G1 F1500 E0
G1 F1200 X99.015 Y85.132 E0.01202
G1 X99.829 Y84.253 E0.03592
G1 X100.442 Y83.613 E0.05361
G1 X101.149 Y82.942 E0.07306
G1 X101.911 Y82.338 E0.09247
G1 X102.724 Y81.802 E0.1119
G1 X103.518 Y81.371 E0.12993
G1 X104.411 Y80.983 E0.14936
G1 X105.146 Y80.729 E0.16488
G1 X106.295 Y80.383 E0.18882
G1 X107.476 Y80.056 E0.21328
G1 X108.425 Y79.842 E0.23269
G1 X109.391 Y79.71 E0.25215
G1 X110.364 Y79.666 E0.27159
G1 X111.336 Y79.708 E0.291
G1 X112.231 Y79.824 E0.30901
G1 X113.052 Y79.997 E0.32576
G1 X113.678 Y80.161 E0.33867
G1 X115.464 Y80.677 E0.37577
G1 X116.352 Y80.979 E0.39449
G1 X117.275 Y81.387 E0.41463
G1 X118.127 Y81.858 E0.43405
G1 X118.933 Y82.404 E0.45348
G1 X119.687 Y83.016 E0.47286
G1 X120.284 Y83.589 E0.48937
G1 X121.105 Y84.448 E0.51309
G1 X121.974 Y85.4 E0.53881
G1 X122.589 Y86.139 E0.558
G1 X122.957 Y86.652 E0.57059
G1 X123.406 Y87.319 E0.58664
G1 X124.148 Y88.454 E0.6137
G1 X125.574 Y90.508 E0.6636
G1 X126.499 Y91.749 E0.69449
G1 X127.39 Y92.972 E0.72469
G1 X127.928 Y93.783 E0.74411
G1 X128.376 Y94.603 E0.76275
G1 X128.705 Y95.337 E0.77881
G1 X128.825 Y95.637 E0.78525
G1 X129.145 Y96.555 E0.80466
G1 X129.369 Y97.43 E0.82268
G1 X129.501 Y98.187 E0.83801
G1 X129.726 Y99.803 E0.87057
G1 X129.815 Y100.757 E0.8897
G1 X129.828 Y101.27 E0.89994
G1 X129.828 Y102.031 E0.91512
G1 X129.788 Y102.933 E0.93314
G1 X129.69 Y103.73 E0.94917
G1 X129.131 Y107.231 E1.01992
G1 X128.835 Y109.461 E1.06481
G1 X128.696 Y110.272 E1.08123
G1 X128.498 Y111.17 E1.09958
G1 X128.184 Y112.364 E1.12422
G1 X127.816 Y113.592 E1.1498
G1 X127.114 Y116.123 E1.20222
G1 X126.592 Y118.158 E1.24414
G1 X126.306 Y119.09 E1.2636
G1 X125.953 Y119.959 E1.28232
G1 X125.493 Y120.857 E1.30245
G1 X124.973 Y121.68 E1.32188
G1 X124.407 Y122.423 E1.34052
G1 X123.895 Y122.996 E1.35585
G1 X123.453 Y123.459 E1.36863
G1 X122.748 Y124.129 E1.38803
G1 X122.014 Y124.715 E1.40678
G1 X121.172 Y125.27 E1.4269
G1 X120.326 Y125.729 E1.44611
G1 X119.756 Y125.985 E1.45858
G1 X118.773 Y126.394 E1.47983
G1 X116.434 Y127.406 E1.53069
G1 X115.649 Y127.758 E1.54785
G1 X114.719 Y128.125 E1.56781
G1 X114.233 Y128.29 E1.57805
G1 X113.281 Y128.564 E1.59782
G1 X112.32 Y128.752 E1.61736
G1 X111.225 Y128.861 E1.63932
G1 X110.101 Y128.91 E1.66177
G1 X109.148 Y128.917 E1.68079
G1 X108.141 Y128.829 E1.70096
G1 X107.186 Y128.659 E1.72032
G1 X106.394 Y128.451 E1.73666
G1 X105.649 Y128.222 E1.75222
G1 X104.473 Y127.781 E1.77728
G1 X101.985 Y126.672 E1.83164
G1 X100.021 Y125.847 E1.87415
G1 X99.205 Y125.461 E1.89216
G1 X98.304 Y124.932 E1.91301
G1 X97.536 Y124.384 E1.93184
G1 X96.592 Y123.555 E1.95691
G1 X96.107 Y123.075 E1.97053
G1 X95.446 Y122.36 E1.98996
G1 X94.85 Y121.588 E2.00943
G1 X94.328 Y120.768 E2.02882
G1 X93.878 Y119.904 E2.04827
G1 X93.507 Y119.008 E2.06762
G1 X93.242 Y118.177 E2.08502
G1 X93.068 Y117.54 E2.0982
G1 X92.948 Y117.057 E2.10813
G1 X92.767 Y116.252 E2.1246
G1 X92.165 Y113.728 E2.17638
G1 X91.797 Y112.379 E2.20429
G1 X91.572 Y111.492 E2.22255
G1 X91.356 Y110.535 E2.24213
G1 X91.195 Y109.668 E2.25972
G1 X91.126 Y109.225 E2.26867
G1 X90.902 Y107.506 E2.30327
G1 X90.419 Y104.44 E2.36521
G1 X90.331 Y103.934 E2.37545
G1 X90.209 Y102.97 E2.39485
G1 X90.173 Y102.067 E2.41288
G1 X90.174 Y101.221 E2.42976
G1 X90.215 Y100.319 E2.44778
G1 X90.282 Y99.731 E2.45959
G1 X90.513 Y98.102 E2.49243
G1 X90.695 Y97.146 E2.51185
G1 X90.952 Y96.237 E2.5307
G1 X91.42 Y95.049 E2.55618
G1 X91.564 Y94.741 E2.56296
G1 X91.998 Y93.908 E2.58171
G1 X92.545 Y93.054 E2.60195
G1 X93.216 Y92.195 E2.6237
G1 X94.747 Y90.429 E2.67034
G1 X96.338 Y88.493 E2.72035
G1 X98.251 Y86.028 E2.78262
G1 X98.616 Y85.583 E2.7941
G0 F6000 X98.916 Y85.848
G1 F1200 X99.308 Y85.404 E2.80592
G1 X100.118 Y84.53 E2.8297
G1 X100.718 Y83.903 E2.84702
G1 X101.398 Y83.255 E2.86577
G1 X102.132 Y82.672 E2.88447
G1 X102.915 Y82.154 E2.90321
G1 X103.709 Y81.723 E2.92124
G1 X104.57 Y81.35 E2.93996
G1 X105.261 Y81.112 E2.95455
G1 X106.402 Y80.768 E2.97833
G1 X107.565 Y80.446 E3.00241
G1 X108.48 Y80.238 E3.02114
G1 X109.41 Y80.11 E3.03987
G1 X110.347 Y80.066 E3.05859
G1 X111.285 Y80.105 E3.07732
G1 X112.18 Y80.221 E3.09533
G1 X112.951 Y80.384 E3.11106
G1 X113.567 Y80.545 E3.12377
G1 X115.335 Y81.056 E3.16049
G1 X116.223 Y81.358 E3.17921
G1 X117.082 Y81.737 E3.19795
G1 X117.903 Y82.19 E3.21666
G1 X118.681 Y82.715 E3.23539
G1 X119.41 Y83.305 E3.25411
G1 X120.007 Y83.878 E3.27062
G1 X120.81 Y84.718 E3.29381
G1 X121.667 Y85.656 E3.31916
G1 X122.264 Y86.372 E3.33777
G1 X122.625 Y86.875 E3.35012
G1 X123.071 Y87.538 E3.36607
G1 X123.819 Y88.682 E3.39335
G1 X125.253 Y90.747 E3.44352
G1 X126.176 Y91.985 E3.47433
G1 X127.057 Y93.194 E3.50419
G1 X127.577 Y93.975 E3.52291
G1 X128.011 Y94.767 E3.54093
G1 X128.34 Y95.501 E3.55699
G1 X128.447 Y95.769 E3.56275
G1 X128.757 Y96.654 E3.58146
G1 X128.981 Y97.529 E3.59948
G1 X129.105 Y98.242 E3.61393
G1 X129.328 Y99.84 E3.64612
G1 X129.415 Y100.767 E3.6647
G1 X129.428 Y101.28 E3.67495
G1 X129.428 Y102.013 E3.68957
G1 X129.388 Y102.915 E3.70759
G1 X129.295 Y103.667 E3.72271
G1 X128.734 Y107.178 E3.79367
G1 X128.438 Y109.408 E3.83856
G1 X128.305 Y110.186 E3.85431
G1 X128.111 Y111.068 E3.87233
G1 X127.801 Y112.249 E3.8967
G1 X127.433 Y113.477 E3.92228
G1 X126.729 Y116.016 E3.97486
G1 X126.21 Y118.041 E4.01658
G1 X125.935 Y118.939 E4.03532
G1 X125.582 Y119.808 E4.05404
G1 X125.155 Y120.644 E4.07277
G1 X124.654 Y121.438 E4.09151
G1 X124.108 Y122.157 E4.10953
G1 X123.606 Y122.72 E4.12458
G1 X123.177 Y123.169 E4.13697
G1 X122.498 Y123.816 E4.15569
G1 X121.764 Y124.402 E4.17443
G1 X120.981 Y124.919 E4.19316
G1 X120.162 Y125.364 E4.21176
G1 X119.602 Y125.616 E4.22401
G1 X118.619 Y126.025 E4.24526
G1 X116.27 Y127.041 E4.29633
G1 X115.502 Y127.386 E4.31313
G1 X114.59 Y127.746 E4.3327
G1 X114.104 Y127.911 E4.34294
G1 X113.204 Y128.172 E4.36164
G1 X112.28 Y128.354 E4.38044
G1 X111.207 Y128.461 E4.40196
G1 X110.092 Y128.512 E4.42423
G1 X109.146 Y128.517 E4.44311
G1 X108.211 Y128.435 E4.46184
G1 X107.288 Y128.272 E4.48054
G1 X106.496 Y128.064 E4.49689
G1 X105.789 Y127.847 E4.51164
G1 X104.613 Y127.406 E4.53671
G1 X102.14 Y126.303 E4.59075
G1 X100.192 Y125.485 E4.63291
G1 X99.376 Y125.099 E4.65092
G1 X98.536 Y124.606 E4.67036
G1 X97.8 Y124.083 E4.68838
G1 X96.873 Y123.27 E4.71298
G1 X96.4 Y122.803 E4.72625
G1 X95.762 Y122.115 E4.74497
G1 X95.187 Y121.373 E4.76371
G1 X94.682 Y120.583 E4.78242
G1 X94.247 Y119.751 E4.80115
G1 X93.888 Y118.886 E4.81984
G1 X93.628 Y118.071 E4.83691
G1 X93.456 Y117.443 E4.84991
G1 X93.338 Y116.969 E4.85966
G1 X93.157 Y116.164 E4.87612
G1 X92.554 Y113.635 E4.92801
G1 X92.185 Y112.28 E4.95603
G1 X91.962 Y111.404 E4.97407
G1 X91.749 Y110.462 E4.99334
G1 X91.59 Y109.607 E5.0107
G1 X91.523 Y109.173 E5.01946
G1 X91.299 Y107.454 E5.05406
G1 X90.814 Y104.378 E5.1162
G1 X90.728 Y103.883 E5.12623
G1 X90.609 Y102.954 E5.14492
G1 X90.573 Y102.067 E5.16263
G1 X90.574 Y101.239 E5.17916
G1 X90.615 Y100.337 E5.19717
G1 X90.678 Y99.787 E5.20822
G1 X90.906 Y98.176 E5.24069
G1 X91.08 Y97.255 E5.2594
G1 X91.337 Y96.346 E5.27825
G1 X91.783 Y95.218 E5.30245
G1 X91.919 Y94.926 E5.30888
G1 X92.353 Y94.093 E5.32763
G1 X92.86 Y93.3 E5.34641
G1 X93.518 Y92.457 E5.36775
G1 X95.049 Y90.691 E5.41439
G1 X96.647 Y88.747 E5.46461
G1 X98.56 Y86.282 E5.52688
G1 X98.916 Y85.848 E5.53808
G0 F6000 X99.216 Y86.113
G1 F1200 X99.602 Y85.676 E5.54972
G1 X100.407 Y84.806 E5.57337
G1 X100.994 Y84.192 E5.59032
G1 X101.647 Y83.568 E5.60835
G1 X102.353 Y83.005 E5.62637
G1 X103.106 Y82.506 E5.64439
G1 X103.9 Y82.075 E5.66242
G1 X104.729 Y81.717 E5.68044
G1 X105.377 Y81.495 E5.69411
G1 X106.509 Y81.153 E5.71771
G1 X107.654 Y80.836 E5.74142
G1 X108.535 Y80.634 E5.75946
G1 X109.429 Y80.51 E5.77747
G1 X110.331 Y80.466 E5.79549
G1 X111.234 Y80.502 E5.81353
G1 X112.129 Y80.618 E5.83154
G1 X112.85 Y80.771 E5.84625
G1 X113.456 Y80.929 E5.85874
G1 X115.207 Y81.435 E5.89512
G1 X116.062 Y81.724 E5.91313
G1 X116.889 Y82.087 E5.93115
G1 X117.68 Y82.522 E5.94917
G1 X118.43 Y83.026 E5.9672
G1 X119.133 Y83.594 E5.98523
G1 X119.73 Y84.167 E6.00175
G1 X120.515 Y84.988 E6.02442
G1 X121.36 Y85.912 E6.0494
G1 X121.939 Y86.605 E6.06742
G1 X122.293 Y87.098 E6.07954
G1 X122.736 Y87.757 E6.09538
G1 X123.49 Y88.91 E6.12287
G1 X124.932 Y90.986 E6.17332
G1 X125.853 Y92.22 E6.20405
G1 X126.724 Y93.416 E6.23357
G1 X127.226 Y94.167 E6.2516
G1 X127.66 Y94.959 E6.26962
G1 X127.969 Y95.65 E6.28473
G1 X128.07 Y95.901 E6.29013
G1 X128.369 Y96.753 E6.30815
G1 X128.593 Y97.628 E6.32617
G1 X128.709 Y98.297 E6.33972
G1 X128.93 Y99.878 E6.37158
G1 X129.015 Y100.777 E6.3896
G1 X129.028 Y101.29 E6.39984
G1 X129.028 Y101.995 E6.41391
G1 X128.988 Y102.897 E6.43193
G1 X128.9 Y103.604 E6.44614
G1 X128.337 Y107.125 E6.5173
G1 X128.041 Y109.355 E6.56219
G1 X127.914 Y110.1 E6.57728
G1 X127.723 Y110.97 E6.59505
G1 X127.535 Y111.712 E6.61033
G1 X127.418 Y112.134 E6.61907
G1 X127.05 Y113.362 E6.64465
G1 X126.341 Y115.917 E6.69756
G1 X125.827 Y117.925 E6.73893
G1 X125.564 Y118.789 E6.75695
G1 X125.226 Y119.626 E6.77496
G1 X124.816 Y120.431 E6.79299
G1 X124.335 Y121.196 E6.81102
G1 X123.789 Y121.915 E6.82904
G1 X123.317 Y122.444 E6.84319
G1 X122.9 Y122.88 E6.85523
G1 X122.248 Y123.504 E6.87324
G1 X121.543 Y124.069 E6.89127
G1 X120.79 Y124.568 E6.9093
G1 X119.997 Y124.999 E6.92731
G1 X119.448 Y125.247 E6.93933
G1 X118.465 Y125.656 E6.96058
G1 X116.106 Y126.676 E7.01187
G1 X115.355 Y127.014 E7.0283
G1 X114.461 Y127.367 E7.04748
G1 X113.992 Y127.527 E7.05737
G1 X113.126 Y127.78 E7.07537
G1 X112.24 Y127.956 E7.0934
G1 X111.188 Y128.061 E7.1145
G1 X110.083 Y128.114 E7.13658
G1 X109.18 Y128.118 E7.1546
G1 X108.28 Y128.041 E7.17262
G1 X107.39 Y127.885 E7.19065
G1 X106.613 Y127.681 E7.20669
G1 X105.929 Y127.472 E7.22096
G1 X104.753 Y127.031 E7.24602
G1 X102.295 Y125.934 E7.29974
G1 X100.363 Y125.123 E7.34155
G1 X99.547 Y124.737 E7.35957
G1 X98.768 Y124.28 E7.37759
G1 X98.032 Y123.757 E7.39561
G1 X97.154 Y122.985 E7.41894
G1 X96.693 Y122.531 E7.43185
G1 X96.078 Y121.87 E7.44987
G1 X95.524 Y121.157 E7.46789
G1 X95.036 Y120.397 E7.48591
G1 X94.616 Y119.597 E7.50394
G1 X94.269 Y118.764 E7.52195
G1 X94.014 Y117.965 E7.53869
G1 X93.844 Y117.346 E7.5515
G1 X93.728 Y116.881 E7.56106
G1 X93.547 Y116.076 E7.57753
G1 X92.943 Y113.542 E7.62951
G1 X92.573 Y112.181 E7.65766
G1 X92.352 Y111.316 E7.67548
G1 X92.142 Y110.389 E7.69444
G1 X91.985 Y109.547 E7.71154
G1 X91.92 Y109.121 E7.72014
G1 X91.696 Y107.402 E7.75473
G1 X91.209 Y104.316 E7.81708
G1 X91.125 Y103.832 E7.82688
G1 X91.009 Y102.937 E7.84489
G1 X90.973 Y102.067 E7.86227
G1 X90.974 Y101.257 E7.87843
G1 X91.015 Y100.355 E7.89645
G1 X91.074 Y99.843 E7.90674
G1 X91.299 Y98.25 E7.93884
G1 X91.465 Y97.363 E7.95685
G1 X91.709 Y96.493 E7.97488
G1 X92.146 Y95.386 E7.99863
G1 X92.274 Y95.11 E8.0047
G1 X92.69 Y94.308 E8.02273
G1 X93.175 Y93.546 E8.04076
G1 X93.82 Y92.719 E8.06169
G1 X95.351 Y90.953 E8.10833
G1 X96.956 Y89.001 E8.15876
G1 X98.869 Y86.536 E8.22103
G1 X99.216 Y86.113 E8.23195
G1 F1500 E1.73195
G0 F6000 X107.055 Y93.264
G1 F1500 E8.23195
G1 F1200 X108.444 Y91.77 E8.27266
G1 X110.366 Y91.222 E8.31254
G1 X112.288 Y91.769 E8.35242
G1 X113.676 Y93.261 E8.39309
G1 X114.233 Y95.209 E8.43352
G1 X113.685 Y97.169 E8.47413
G1 X112.293 Y98.561 E8.51342
G1 X110.36 Y99.102 E8.55348
G1 X108.513 Y98.562 E8.59188
G1 X107.038 Y97.087 E8.63351
G1 X106.493 Y95.223 E8.67226
G1 X107.055 Y93.264 E8.71293
G0 F6000 X107.415 Y93.465
G1 F1200 X108.661 Y92.124 E8.74946
G1 X110.366 Y91.638 E8.78484
G1 X112.071 Y92.123 E8.82022
G1 X113.317 Y93.463 E8.85673
G1 X113.817 Y95.211 E8.89301
G1 X113.328 Y96.96 E8.92926
G1 X112.084 Y98.204 E8.96436
G1 X110.363 Y98.686 E9.00003
G1 X108.724 Y98.207 E9.03411
G1 X107.393 Y96.876 E9.07167
G1 X106.91 Y95.223 E9.10604
G1 X107.415 Y93.465 E9.14254
G0 F6000 X107.772 Y93.669
G1 F1200 X108.878 Y92.478 E9.17497
G1 X110.366 Y92.054 E9.20585
G1 X111.855 Y92.478 E9.23675
G1 X112.96 Y93.666 E9.26912
G1 X113.402 Y95.212 E9.30121
G1 X112.972 Y96.75 E9.33308
G1 X111.875 Y97.847 E9.36404
G1 X110.366 Y98.27 E9.39532
G1 X108.935 Y97.852 E9.42507
G1 X107.749 Y96.666 E9.45854
G1 X107.326 Y95.221 E9.48859
G1 X107.772 Y93.669 E9.52081
G0 F6000 X108.131 Y93.87
G1 F1200 X109.096 Y92.832 E9.54909
G1 X110.367 Y92.469 E9.57547
G1 X111.636 Y92.831 E9.60181
G1 X112.601 Y93.868 E9.63008
G1 X112.986 Y95.215 E9.65803
G1 X112.615 Y96.541 E9.68551
G1 X111.665 Y97.491 E9.71232
G1 X110.369 Y97.854 E9.73918
G1 X109.145 Y97.496 E9.76463
G1 X108.104 Y96.455 E9.79401
G1 X107.743 Y95.22 E9.81969
G1 X108.131 Y93.87 E9.84772
G0 F6000 X108.488 Y94.072
G1 F1200 X109.312 Y93.186 E9.87186
G1 X110.366 Y92.885 E9.89374
G1 X111.42 Y93.185 E9.91561
G1 X112.242 Y94.069 E9.9397
G1 X112.57 Y95.217 E9.96352
G1 X112.258 Y96.332 E9.98663
G1 X111.455 Y97.135 E10.00929
G1 X110.372 Y97.438 E10.03173
G1 X109.356 Y97.141 E10.05286
G1 X108.459 Y96.244 E10.07817
G1 X108.159 Y95.219 E10.09949
G1 X108.488 Y94.072 E10.1233
G0 F6000 X108.847 Y94.275
G1 F1200 X109.529 Y93.54 E10.14331
G1 X110.367 Y93.302 E10.16069
G1 X111.202 Y93.54 E10.17802
G1 X111.885 Y94.274 E10.19803
G1 X112.155 Y95.215 E10.21756
G1 X111.9 Y96.124 E10.2364
G1 X111.247 Y96.777 E10.25483
G1 X110.373 Y97.021 E10.27294
G1 X109.567 Y96.786 E10.2897
G1 X108.814 Y96.033 E10.31095
G1 X108.576 Y95.219 E10.32787
G1 X108.847 Y94.275 E10.34747
G0 F6000 X109.204 Y94.478
G1 F1200 X109.747 Y93.894 E10.36338
G1 X110.365 Y93.717 E10.37621
G1 X110.988 Y93.895 E10.38914
G1 X111.526 Y94.473 E10.4049
G1 X111.739 Y95.217 E10.42035
G1 X111.543 Y95.917 E10.43485
G1 X111.041 Y96.419 E10.44902
G1 X110.375 Y96.605 E10.46282
G1 X109.775 Y96.43 E10.47529
G1 X109.17 Y95.825 E10.49237
G1 X108.992 Y95.216 E10.50503
G1 X109.204 Y94.478 E10.52035
G0 F6000 X109.563 Y94.678
G1 F1200 X109.963 Y94.248 E10.53207
G1 X110.367 Y94.133 E10.54045
G1 X110.769 Y94.248 E10.5488
G1 X111.169 Y94.677 E10.5605
G1 X111.324 Y95.218 E10.57173
G1 X111.187 Y95.707 E10.58187
G1 X110.831 Y96.063 E10.59191
G1 X110.378 Y96.19 E10.6013
G1 X109.986 Y96.075 E10.60946
G1 X109.524 Y95.613 E10.62249
G1 X109.408 Y95.218 E10.63071
G1 X109.563 Y94.678 E10.64192
G0 F6000 X109.921 Y94.881
G1 F1200 X110.179 Y94.603 E10.64949
G1 X110.367 Y94.549 E10.65339
G1 X110.553 Y94.602 E10.65725
G1 X110.81 Y94.879 E10.66479
G1 X110.908 Y95.22 E10.67187
G1 X110.83 Y95.498 E10.67764
G1 X110.622 Y95.706 E10.68351
G1 X110.38 Y95.774 E10.68852
G1 X110.197 Y95.72 E10.69233
G1 X109.879 Y95.402 E10.70131
G1 X109.825 Y95.216 E10.70517
G1 X109.921 Y94.881 E10.71212
G0 F6000 X110.278 Y95.085
